!!!OTL: Bei der Nacht (42e), S. 140
!!!id: T0173
**kern
*clefG2
*k[f#]
*D:
{4d
=1
4f#
4f#
4e
4e
=2
4d}
2r
=3
{4d
=4
4f#
4d
4f#
8d
8f#
=5
8a
8a
8a
8b
4a}
=6
{4a
=7
4g
4g
4g
4a
=8
4f#}
2r
=9
{4f#
=10
4.a
8f#
4.a
8dd
=11
2b
2b}
=12
{8a
8a
8f#
8f#
8a
8a
8f#
8f#
=13
8a
8a
8a
8b
8a
8a}
=14
{4a
=15
4g
4g
4g
4a
=16
4f#
8f#
8f#
8f#
8f#}
==
*-
!!!minrhy: 8
!!!meters: 4/4 ]  ZZ[6
!!!cut: Bei der Nacht (42e), S. 140
!!!reg: Luxemburg
!!!trd: Singendes Volk, Esch-Alzette 1937 posth.
!!!rhy1: X_  X_X_X_X_  X_0__
!!!rhy2: X_  X_X_X_XX  XXXXX_
!!!key: T0173  08  D 4/4 ]  ZZ[6
!!!mod: SECHSTONSKALA DUR ?]  AMBITUS[8
!!!kad: 153653
!!!akz: 321_3355_443_5566_5555_4433_
!!!fot: 'a__b__c__d__e__cv_
!!!for: 'a__b__a__c__d__aw_
!!!fok: '^__/__\__^a_V__\__
!! PHRAS[VORWIEGEND AUFTAKTIG]
!!!fkt: Liebeslieder
!!!bem: Heffingen, hhh Nikolaus Ewen, 2.6.1935
!! THILL, Mathias:
!! PR[17] 2K[5] 2G[7] 3K[0] 3G[0] 4A[12] 4Ü[0] 5A[7] 6K[0] 6G[2]
!! 7K[0] 7G[0] 8A[0] MEHR[0] SI[34] ABS[41] SR[12] SP[22]
!! ST[11] 2k[10] 2g[24] 3k[0] 3g[0] 4d[10] 4ü[0] 5d[5] 6k[0] 6g[0]
!! 7k[0] 7g[0] 8d[0] mehr[0] si[49] dm[-15] sr[34] sp[15]
!! 1F[9] 2F[77] 3F[7] 4F[5] LF[0] 2P[0] 3P[2] 4P[0] TRI[0] DF[5] AB[43]
!! TF[0] U3K[0] U3[0] U4[0] U4Ü[0] U5[0] U6K[0] U6[0] U7K[0] U7[0]
!! N1[0] N2K[0] N2[0] N3K[0] N3[0] N4[0] N4Ü[0] N5[24] N6K[0] N6[5]
!!!n7k: 0] N7[7] O1[29] O2K[0] O2[19] O3K[0] O3[14] HÖ[2
